X:18
T:Ojos Azules
R:waynu
O:Peru
Z:id:hn-waynu-18
M:2/4
L:1/8
Q:1/4=90
K:Em
BB Bd | B2 GA |[M:3/4] B2 GA BB |[M:2/4] A2 FG | E4 :|
|: G>F EE | D2 GA |[M:3/4] B2 GA BB |[M:2/4] A2 FG | E4 :|
W:Ojos azules, no llores,
W:No llores ni te enamores.
W:Lloraras cuando me vaya,
W:Cuando remedio ya no haya.
W:
W:Tu me juraste quererme,
W:Quererme toda la vida.
W:No han pasado dos, tres dias,
W:Tu te alejas y me dejas.
W:
W:En una copa de vino,
W:Quisiera tomar veneno.
W:Veneno para matarme,
W:Veneno para olvidarte.

